public/assets/imgs/projetos/icons/academia.svg

<svg fill="none" height="42" viewBox="0 0 42 42" width="42" xmlns="http://www.w3.org/2000/svg"><path clip-rule="evenodd" d="m35.4328 4.75011v.00006l1.5124 1.51247 2.9367-2.93667c.0249-.02493.0434-.05385.0556-.08469-.0122.0308-.0307.05967-.0556.08458l-2.9366 2.93666zm4.2733-1.60008-2.7608 2.76084-1.1609-1.16081 2.7609-2.76084zm-29.4906 35.84597 1.5255-1.5254c.0243-.0243.0425-.0524.0546-.0823-.0121.03-.0303.0581-.0546.0824l-1.5255 1.5255c-.0971.0971-.25456.0971-.35166 0l-7.30449-7.3045c-.04782-.0479-.07208-.1103-.0728-.173.00075.0627.02502.1251.07281.1729l7.30449 7.3044c.09711.0971.25455.0971.35165 0zm12.746-32.18224 3.973 3.97304-16.2696 16.2696-3.69105-3.6911c-.77684-.7768-2.03634-.7768-2.81318 0l-1.83749 1.8375c-.77684.7769-.77684 2.0364 0 2.8132l.54939.5494-.01848.0182-1.52549 1.5255c-.776844.7769-.776843 2.0364 0 2.8132l1.7352 1.7352-2.481171 2.4812c-.776839.7768-.776838 2.0363.000001 2.8132l1.16081 1.1608c.77684.7768 2.03634.7768 2.81318 0l2.48117-2.4812 1.59529 1.5953c.77684.7768 2.03632.7768 2.81322 0l1.5255-1.5255.0182-.0185.9179.9179c.7768.7769 2.0364.7769 2.8132 0l1.8375-1.8374c.7768-.7769.7768-2.0364 0-2.8132l-3.9197-3.9197 16.2696-16.2696 3.6377 3.6377c.7768.7768 2.0363.7768 2.8132 0l1.8375-1.8375c.7768-.7768.7768-2.0363 0-2.8132l-.7605-.7604c.005-.0048.0099-.0096.0148-.0144.005-.0049.0099-.0097.0148-.0147l1.3568-1.3567c.7768-.7769.7768-2.03636 0-2.8132l-1.4709-1.47093 2.7608-2.76084c.7768-.77684.7768-2.03635 0-2.81319l-1.1608-1.160809c-.7769-.776839-2.0364-.776843-2.8132-.000003l-2.7608 2.760842-1.8596-1.85956c-.7768-.77684-2.0363-.776841-2.8132 0l-1.3567 1.35674c-.0098.0098-.0195.01968-.0291.02964l-.7072-.7072c-.7768-.77684-2.0363-.77684-2.8131 0l-1.8375 1.83749c-.7769.77684-.7769 2.03635 0 2.81318zm-4.0769 29.37604c-.0372-.3883-.2045-.7665-.5018-1.0639l-4.0955-4.0954 4.0954 4.0955c.2974.2974.4647.6755.5019 1.0638zm20.6462-21.0354c0-.4454-.1699-.8909-.5098-1.2308l-.9529-.9529h-.0001l.953.9531c.3399.3398.5098.7852.5098 1.2306zm.618-5.1262c-.0372-.38837-.2045-.7666-.5018-1.06398l-1.6467-1.64671-.0001.00007 1.6467 1.64676c.2974.29735.4647.67553.5019 1.06386zm1.2899-7.045c-.0372-.38829-.2045-.76646-.5019-1.06382l-1.1608-1.16081c-.6797-.6797347-1.7818-.6797381-2.4615-.000003l-2.9367 2.936663-2.0353-2.03538c-.6798-.679737-1.7818-.679738-2.4616 0l-1.3567 1.35674c-.0699.0699-.1326.14427-.1882.22218l-.8997-.89974c-.6797-.67974-1.7818-.67974-2.4615 0l-1.8375 1.83749c-.2257.22566-.3764.49787-.4523.78572.0758-.28789.2266-.56014.4523-.78584l1.8375-1.83749c.6797-.67973 1.7818-.67973 2.4615 0l.8998.89975c.0477-.06699.1007-.13135.1591-.19251.0095-.00998.0192-.01987.029-.02968l1.3567-1.35674c.6798-.679732 1.7818-.679731 2.4616 0l2.0354 2.03539 2.9366-2.936668c.6798-.6797347 1.7818-.6797314 2.4616.000003l1.1608 1.160815c.2973.29738.4646.6756.5018 1.06393zm-14.1526 7.8037-16.6212 16.6212-3.86687-3.8669c-.67974-.6798-1.7818-.6798-2.46154 0l-1.83749 1.8375c-.23366.2336-.387.5172-.46002.8164.07303-.2992.22637-.5827.46001-.8163l1.83749-1.8375c.67973-.6798 1.7818-.6798 2.46153 0l3.86689 3.8669zm-24.04684 17.7937c-.06646.0482-.13027.1018-.19085.1606l-.0185.0183-1.52549 1.5255c-.23284.2328-.38593.5152-.45925.8132.07333-.298.22642-.5803.45924-.8131l1.52549-1.5255c.06607-.0661.13614-.1257.20942-.179zm.17612 6.077-2.656927 2.6569c-.225372.2254-.376019.4972-.451943.7846.075933-.2874.226586-.5591.451929-.7845l2.656991-2.657zm8.30452-6.1946-.0001.0001 1.5125 1.5125 16.6213-16.6213h-.0001l-16.6212 16.6212zm1.5124 1.1608-1.1608-1.1608 16.2696-16.2696 1.1608 1.1608zm-11.24308 8.9215 2.48117-2.4812 1.16081 1.1608-2.48117 2.4812zm3.99357-1.3203-2.65694 2.6569c-.0971.0971-.25453.0971-.35164 0l-1.16081-1.1608c-.03944-.0394-.06286-.0888-.07026-.1401.00738.0513.03078.1008.07024.1402l1.16081 1.1608c.09711.0971.25455.0971.35165 0l2.65699-2.657zm25.12891-34.3345 7.3045 7.3045-1.3567 1.3567-7.3045-7.30446zm-26.85102 27.0997 7.30452 7.3045-1.5255 1.5255-7.30451-7.3045zm21.94492-26.42052 11.5847 11.58472-1.8375 1.8375-11.5847-11.58473zm-20.63834 21.20222 11.58474 11.5848-1.8375 1.8375-11.58473-11.5848zm33.07934-14.4833c-.0121.0299-.0303.058-.0546.0823l-1.3567 1.3568c-.0971.0971-.2546.0971-.3517 0l-7.3045-7.30452c-.0491-.04913-.0734-.1137-.0728-.17808-.0005.06435.0237.12887.0728.17796l7.3045 7.30454c.0971.0971.2546.0971.3517 0l1.3567-1.3568c.0243-.0243.0425-.0523.0546-.0822zm-14.5272-4.88143c0 .06368.0242.12736.0728.17594l11.5848 11.58469c.0971.0971.2545.0971.3516 0l1.8375-1.8375c.0228-.0227.0402-.0489.0523-.0767-.0121.0278-.0295.0539-.0523.0766l-1.8375 1.8375c-.0971.0971-.2545.0971-.3516 0l-11.5848-11.5847c-.0485-.04856-.0728-.11219-.0728-.17583zm-6.7233 30.99703c-.0091.047-.0319.092-.0683.1284l-1.8375 1.8375c-.0971.0971-.2545.0971-.3516 0l-11.58477-11.5847c-.04799-.048-.07224-.1108-.0728-.1736.00058.0628.02486.1255.07282.1734l11.58475 11.5848c.0971.0971.2545.0971.3516 0l1.8375-1.8375c.0364-.0364.0592-.0813.0683-.1283z" fill="#000" fill-rule="evenodd"/></svg>

<svg width="42" height="42" viewBox="0 0 42 42" fill="none" xmlns="http://www.w3.org/2000/svg">
<path fill-rule="evenodd" clip-rule="evenodd" d="M35.4328 4.75011L35.4328 4.75017L36.9452 6.26264L39.8819 3.32597C39.9068 3.30104 39.9253 3.27212 39.9375 3.24128C39.9253 3.27208 39.9068 3.30095 39.8819 3.32586L36.9453 6.26252L35.4328 4.75011ZM39.7061 3.15003L36.9453 5.91087L35.7844 4.75006L38.5453 1.98922L39.7061 3.15003ZM10.2155 38.996L11.741 37.4706C11.7653 37.4463 11.7835 37.4182 11.7956 37.3883C11.7835 37.4183 11.7653 37.4464 11.741 37.4707L10.2155 38.9962C10.1184 39.0933 9.96094 39.0933 9.86384 38.9962L2.55935 31.6917C2.51153 31.6438 2.48727 31.5814 2.48655 31.5187C2.4873 31.5814 2.51157 31.6438 2.55936 31.6916L9.86385 38.996C9.96096 39.0931 10.1184 39.0931 10.2155 38.996ZM22.9615 6.81376L26.9345 10.7868L10.6649 27.0564L6.97385 23.3653C6.19701 22.5885 4.93751 22.5885 4.16067 23.3653L2.32318 25.2028C1.54634 25.9797 1.54634 27.2392 2.32318 28.016L2.87257 28.5654L2.85409 28.5836L1.3286 30.1091C0.551756 30.886 0.551757 32.1455 1.3286 32.9223L3.0638 34.6575L0.582629 37.1387C-0.19421 37.9155 -0.194209 39.175 0.58263 39.9519L1.74344 41.1127C2.52028 41.8895 3.77978 41.8895 4.55662 41.1127L7.03779 38.6315L8.63308 40.2268C9.40992 41.0036 10.6694 41.0036 11.4463 40.2268L12.9718 38.7013L12.99 38.6828L13.9079 39.6007C14.6847 40.3776 15.9443 40.3776 16.7211 39.6007L18.5586 37.7633C19.3354 36.9864 19.3354 35.7269 18.5586 34.9501L14.6389 31.0304L30.9085 14.7608L34.5462 18.3985C35.323 19.1753 36.5825 19.1753 37.3594 18.3985L39.1969 16.561C39.9737 15.7842 39.9737 14.5247 39.1969 13.7478L38.4364 12.9874C38.4414 12.9826 38.4463 12.9778 38.4512 12.973C38.4562 12.9681 38.4611 12.9633 38.466 12.9583L39.8228 11.6016C40.5996 10.8247 40.5996 9.56524 39.8228 8.7884L38.3519 7.31747L41.1127 4.55663C41.8895 3.77979 41.8895 2.52028 41.1127 1.74344L39.9519 0.582631C39.175 -0.194208 37.9155 -0.194212 37.1387 0.582628L34.3779 3.34347L32.5183 1.48391C31.7415 0.70707 30.482 0.707069 29.7051 1.48391L28.3484 2.84065C28.3386 2.85045 28.3289 2.86033 28.3193 2.87029L27.6121 2.16309C26.8353 1.38625 25.5758 1.38625 24.799 2.16309L22.9615 4.00058C22.1846 4.77742 22.1846 6.03693 22.9615 6.81376ZM18.8846 36.1898C18.8474 35.8015 18.6801 35.4233 18.3828 35.1259L14.2873 31.0305L14.2873 31.0305L18.3827 35.126C18.6801 35.4234 18.8474 35.8015 18.8846 36.1898ZM39.5308 15.1544C39.5308 14.709 39.3609 14.2635 39.021 13.9236L38.0681 12.9707C38.0681 12.9707 38.068 12.9707 38.068 12.9707L39.021 13.9238C39.3609 14.2636 39.5308 14.709 39.5308 15.1544ZM40.1488 10.0282C40.1116 9.63983 39.9443 9.2616 39.647 8.96422L38.0003 7.31751L38.0002 7.31758L39.6469 8.96434C39.9443 9.26169 40.1116 9.63987 40.1488 10.0282ZM41.4387 2.9832C41.4015 2.59491 41.2342 2.21674 40.9368 1.91938L39.776 0.75857C39.0963 0.0788353 37.9942 0.0788319 37.3145 0.758567L34.3778 3.69523L32.3425 1.65985C31.6627 0.980113 30.5607 0.980112 29.8809 1.65985L28.5242 3.01659C28.4543 3.08649 28.3916 3.16086 28.336 3.23877L27.4363 2.33903C26.7566 1.65929 25.6545 1.65929 24.9748 2.33903L23.1373 4.17652C22.9116 4.40218 22.7609 4.67439 22.685 4.96224C22.7608 4.67435 22.9116 4.4021 23.1373 4.1764L24.9748 2.33891C25.6545 1.65918 26.7566 1.65918 27.4363 2.33891L28.3361 3.23866C28.3838 3.17167 28.4368 3.10731 28.4952 3.04615C28.5047 3.03617 28.5144 3.02628 28.5242 3.01647L29.8809 1.65973C30.5607 0.979998 31.6627 0.979999 32.3425 1.65973L34.3779 3.69512L37.3145 0.758452C37.9943 0.0787173 39.0963 0.0787206 39.7761 0.758455L40.9369 1.91927C41.2342 2.21665 41.4015 2.59487 41.4387 2.9832ZM27.2861 10.7869L10.6649 27.4081L6.79803 23.5412C6.11829 22.8614 5.01623 22.8614 4.33649 23.5412L2.499 25.3787C2.26534 25.6123 2.112 25.8959 2.03898 26.1951C2.11201 25.8959 2.26535 25.6124 2.49899 25.3788L4.33648 23.5413C5.01621 22.8615 6.11828 22.8615 6.79801 23.5413L10.6649 27.4082L27.2861 10.7869L27.2861 10.7869ZM3.23926 28.5806C3.1728 28.6288 3.10899 28.6824 3.04841 28.7412L3.02991 28.7595L1.50442 30.285C1.27158 30.5178 1.11849 30.8002 1.04517 31.0982C1.1185 30.8002 1.27159 30.5179 1.50441 30.2851L3.0299 28.7596C3.09597 28.6935 3.16604 28.6339 3.23932 28.5806L3.23926 28.5806ZM3.41538 34.6576L0.758453 37.3145C0.533081 37.5399 0.382434 37.8117 0.30651 38.0991C0.382443 37.8117 0.533096 37.54 0.758439 37.3146L3.41543 34.6576L3.41538 34.6576ZM11.7199 28.463L11.7198 28.4631L13.2323 29.9756L29.8536 13.3543L29.8535 13.3543L13.2323 29.9755L11.7199 28.463ZM13.2323 29.6238L12.0715 28.463L28.3411 12.1934L29.5019 13.3542L13.2323 29.6238ZM1.98922 38.5453L4.47039 36.0641L5.6312 37.2249L3.15003 39.7061L1.98922 38.5453ZM5.98279 37.225L3.32585 39.8819C3.22875 39.979 3.07132 39.979 2.97421 39.8819L1.8134 38.7211C1.77396 38.6817 1.75054 38.6323 1.74314 38.581C1.75052 38.6323 1.77392 38.6818 1.81338 38.7212L2.97419 39.882C3.0713 39.9791 3.22874 39.9791 3.32584 39.882L5.98283 37.225L5.98279 37.225ZM31.1117 2.8905L38.4162 10.195L37.0595 11.5517L29.755 4.24724L31.1117 2.8905ZM4.26068 29.9902L11.5652 37.2947L10.0397 38.8202L2.73519 31.5157L4.26068 29.9902ZM26.2056 3.56968L37.7903 15.1544L35.9528 16.9919L24.3681 5.40717L26.2056 3.56968ZM5.56726 24.7719L17.152 36.3567L15.3145 38.1942L3.72977 26.6094L5.56726 24.7719ZM38.6466 10.2886C38.6345 10.3185 38.6163 10.3466 38.592 10.3709L37.2353 11.7277C37.1382 11.8248 36.9807 11.8248 36.8836 11.7277L29.5791 4.42318C29.53 4.37405 29.5057 4.30948 29.5063 4.2451C29.5058 4.30945 29.53 4.37397 29.5791 4.42306L36.8836 11.7276C36.9807 11.8247 37.1382 11.8247 37.2353 11.7276L38.592 10.3708C38.6163 10.3465 38.6345 10.3185 38.6466 10.2886ZM24.1194 5.40717C24.1194 5.47085 24.1436 5.53453 24.1922 5.58311L35.777 17.1678C35.8741 17.2649 36.0315 17.2649 36.1286 17.1678L37.9661 15.3303C37.9889 15.3076 38.0063 15.2814 38.0184 15.2536C38.0063 15.2814 37.9889 15.3075 37.9661 15.3302L36.1286 17.1677C36.0315 17.2648 35.8741 17.2648 35.777 17.1677L24.1922 5.583C24.1437 5.53444 24.1194 5.47081 24.1194 5.40717ZM17.3961 36.4042C17.387 36.4512 17.3642 36.4962 17.3278 36.5326L15.4903 38.3701C15.3932 38.4672 15.2358 38.4672 15.1387 38.3701L3.55393 26.7854C3.50594 26.7374 3.48169 26.6746 3.48113 26.6118C3.48171 26.6746 3.50599 26.7373 3.55395 26.7852L15.1387 38.37C15.2358 38.4671 15.3932 38.4671 15.4903 38.37L17.3278 36.5325C17.3642 36.4961 17.387 36.4512 17.3961 36.4042Z" fill="black"/>
</svg>
